logo/logo-up.svg

<svg width="164" height="55" viewBox="0 0 164 55" fill="none" xmlns="http://www.w3.org/2000/svg">
  <path d="M67.2915 35.6107C66.222 34.5865 64.9916 33.8087 63.6344 33.2981C62.3408 32.8117 60.9244 32.5649 59.4246 32.5649C56.4027 32.5649 53.7037 33.618 51.6189 35.6104C50.5534 36.6288 49.7322 37.8483 49.1787 39.2354C48.6103 40.6595 48.3223 42.2665 48.3223 44.0117C48.3223 47.2231 49.4735 50.0018 51.6518 52.0476C53.6784 53.9514 56.3955 54.9999 59.3032 54.9999C60.9009 54.9999 62.3722 54.7517 63.6762 54.2628C64.9548 53.7832 66.1086 53.0586 67.1056 52.1094C69.3242 50.0675 70.4972 47.1406 70.4972 43.6456C70.4972 40.4342 69.3585 37.5805 67.2915 35.6107ZM64.1016 51.1527C63.0895 53.0668 61.3548 54.0375 59.4249 54.0375C57.4922 54.0375 55.7539 53.0608 54.7368 51.1342C53.8058 49.3704 53.3137 46.8546 53.3137 43.8588C53.3137 40.6277 53.8554 37.9776 54.8803 36.1949C55.8984 34.424 57.5881 33.5263 59.4249 33.5263C61.4305 33.5263 63.2023 34.5676 64.2122 36.621C65.0783 38.3819 65.5361 40.842 65.5361 43.736C65.5358 46.8139 65.0398 49.3783 64.1016 51.1527Z" fill="black"/>
  <path d="M110.946 51.3327C110.431 50.6689 109.935 49.9897 109.448 49.339C107.422 46.6325 105.504 44.072 103.373 41.6551C105.236 40.0689 109.094 36.0485 109.638 35.504C111.235 33.9059 114.056 33.9338 114.056 33.9338V33.1503H105.287V33.9259C105.287 33.9259 108.007 34.0191 108.007 34.8326C108.007 36.6542 100.001 43.2975 99.8759 43.2975V35.4765C99.8759 34.7897 100.37 34.4594 100.883 34.2734C101.474 34.0595 103.211 33.937 103.211 33.937V33.1499H92.4746V33.9377C92.4746 33.9377 94.1918 34.0323 94.7764 34.3237C95.2913 34.5801 95.8801 34.9172 95.8801 35.5672V52.238C95.8801 52.8565 95.3245 53.1158 94.7839 53.3565C94.3124 53.5664 92.4746 53.6561 92.4746 53.6561V54.4424H103.12V53.6554C103.12 53.6554 101.353 53.5265 100.884 53.3008C100.384 53.0719 99.8759 52.6762 99.8759 52.0559V44.2884L100.605 44.2927C101.981 45.8722 103.471 47.7077 104.607 49.2247C106.59 51.8727 106.582 52.5251 106.599 52.6619C106.727 53.7275 104.631 53.6607 104.631 53.6607V54.4424H115.364C115.364 54.4424 115.364 53.9068 115.364 53.6561C114.975 53.6318 112.732 53.6336 110.946 51.3327Z" fill="black"/>
  <path d="M133.249 52.8605C132.659 53.4969 130.709 53.4708 129.012 53.4697C129.012 53.4697 126.706 53.5669 126.172 53.0823C125.832 52.7734 125.669 52.2677 125.669 51.0985V43.8785H127.917C129.445 43.8785 129.947 44.311 130.298 44.7167L130.306 44.7245C130.478 44.9092 130.76 45.4491 131.008 46.0687C131.277 46.7379 131.46 47.3721 131.5 47.7646L131.527 48.0303H132.391V38.9258H131.54L131.502 39.1762C131.382 39.9575 130.779 41.632 130.319 42.0666L130.304 42.0812C129.995 42.4173 129.528 42.9251 127.917 42.9251H125.668V34.0617H128.341C129.293 34.0617 130.449 34.1231 131.149 34.2109C131.693 34.2806 132.446 34.9055 133.215 35.9254C133.871 36.7935 134.632 38.1598 134.72 38.758C134.941 38.758 135.54 38.758 135.54 38.758V33.1382H117.842V33.9285C117.842 33.9285 119.464 33.9924 120.302 34.3141L120.308 34.3166C120.836 34.5073 121.051 34.8659 121.051 35.5544V52.1581C121.051 52.7969 120.838 53.1283 120.315 53.3022L120.309 53.3044C119.787 53.5397 117.842 53.6336 117.842 53.6336V54.4232H136.731L137.164 47.7732H136.387C136.387 47.7732 134.673 51.3217 133.249 52.8605Z" fill="black"/>
  <path d="M154.164 33.145C154.164 33.145 154.164 33.751 154.164 33.9357C155.459 33.9724 156.813 34.2067 157.245 34.5506C157.839 35.0438 158.166 36.514 158.166 38.6902V48.2074L146.284 33.145H139.307C139.307 33.145 139.307 33.7075 139.307 33.9439C139.627 33.9842 141.608 34.1603 142.377 34.8456C142.933 35.3405 143.309 36.2872 143.309 37.1428V49.1274C143.309 51.3732 143.045 52.5834 142.455 53.0495C141.917 53.4526 139.55 53.6898 139.55 53.6898V54.46H148.357C148.357 54.46 148.357 53.8083 148.357 53.6744C147.109 53.6076 145.652 53.2916 145.27 52.9909C144.861 52.6684 144.385 51.9349 144.385 49.0377V36.9704L158.257 54.6125H159.243V38.6609C159.243 37.3542 159.353 35.0845 160.088 34.5627L160.093 34.5592C160.636 34.1574 162.179 33.9881 163.002 33.9171C163.002 33.5393 163.002 33.1457 163.002 33.1457H154.164V33.145Z" fill="black"/>
  <path d="M81.0372 53.3053L81.0354 53.3046C80.5194 53.1018 79.9738 52.7193 79.9738 52.0647L79.9784 33.1416H72.4219V33.9247C72.4219 33.9247 74.082 33.9922 74.9106 34.3226L74.9153 34.3243C75.4588 34.5236 75.9955 34.8821 75.9955 35.5617V52.1151C75.9955 52.7436 75.4506 53.0989 74.912 53.3032L74.907 53.3053C74.4988 53.4996 72.4979 53.6649 72.4979 53.6649V54.4341H83.5224V53.6571C83.522 53.6567 81.479 53.4996 81.0372 53.3053Z" fill="black"/>
  <path d="M133.01 26.9533C132.195 26.4755 131.898 25.9238 131.59 25.1528C131.029 23.7776 121.645 0.0117188 121.645 0.0117188C121.645 0.0117188 120.871 0.0117188 120.476 0.0117188C119.946 1.49729 113.02 18.3981 110.694 23.909C110.052 25.4281 109.338 26.3795 108.575 26.8841C107.748 27.4308 106.031 27.4469 106.031 27.4469V28.4914H116.333V27.4472C116.333 27.4472 111.872 27.4172 111.923 26.0448C111.936 25.7056 112.036 25.0871 112.508 23.8586C112.81 23.0734 113.89 20.0847 114.476 18.5856H123.396L125.98 25.4135C126.179 25.9491 126.152 26.302 126.12 26.4455C125.938 27.2526 124.286 27.2526 121.912 27.4472C121.912 27.7804 121.912 28.4914 121.912 28.4914H135.532V27.4458C135.532 27.4458 133.825 27.4308 133.01 26.9533ZM115.03 17.1597L118.991 7.35492L122.813 17.1597H115.03Z" fill="black"/>
  <path d="M32.6043 53.0392L32.6025 53.0384C31.7792 52.7149 31.1194 52.1096 31.1194 51.0761V23.0718H19.748V23.9853C19.748 23.9853 22.0559 24.0888 23.3655 24.5795L23.3702 24.5813C24.2263 24.8955 24.9243 25.4815 24.9243 26.5411V51.1504C24.9243 52.1335 24.2138 52.7153 23.3666 53.0367L23.3613 53.0388C22.7507 53.2991 19.8605 53.5709 19.8605 53.5709V54.4701H36.2175V53.5627C36.2179 53.5627 33.1799 53.3295 32.6043 53.0392Z" fill="black"/>
  <path d="M34.1797 23.0718C34.1797 23.7057 34.1797 23.7128 34.1797 23.916C39.4602 24.5695 41.005 29.0462 41.0225 31.1506C41.045 33.8343 40.4743 39.0216 34.1797 39.5891C34.1797 40.0705 34.1797 40.1397 34.1797 40.4051C45.0086 40.4051 47.1537 34.7467 47.1537 31.2378C47.1537 26.2818 44.4847 22.8486 34.1797 23.0718Z" fill="black"/>
  <path d="M21.8681 39.606C16.7157 38.2155 12.175 34.7197 12.1861 28.8107V4.37063C12.1861 2.68723 12.8127 2.08908 13.9786 1.69447C14.8354 1.40486 17.4544 1.08739 18.3359 1.05954C18.3359 0.905623 18.3359 0.0114274 18.3359 0.0114274L0 0C0 0 0 1.09596 0 1.10775C0.800795 1.14489 3.23423 1.28594 4.17777 1.77625C5.23621 2.32655 5.9246 3.09112 5.9246 4.37063C5.9246 4.37063 5.9246 27.7176 5.9246 27.7211C5.9246 34.4844 12.3095 39.7342 21.8684 40.4059V39.606H21.8681Z" fill="black"/>
  <path d="M30.748 0.0146484C30.748 0.0146484 30.748 0.957769 30.748 1.0599C32.547 1.0949 35.2702 1.55664 36.4642 2.37977C37.6576 3.25076 38.2421 5.8605 38.2421 13.4233L38.5968 19.972H39.4148L39.7695 13.4233C39.7695 6.12297 40.354 3.25111 41.5474 2.37977C42.7414 1.55664 45.4646 1.09454 47.2636 1.0599C47.2636 0.957769 47.2636 0.0146484 47.2636 0.0146484H30.748Z" fill="black"/>
  <path d="M82.2598 33.1447C82.2598 33.5746 82.2598 33.5796 82.2598 33.7175C86.1752 34.2338 87.1748 37.0839 87.1477 38.6259C87.1159 40.4182 86.9682 44.0347 82.2598 44.3507C82.2598 44.6771 82.2598 44.7242 82.2598 44.9042C89.3595 44.9042 90.8287 41.0653 90.8287 38.6848C90.8287 35.3227 89.251 32.9933 82.2598 33.1447Z" fill="black"/>
  <path d="M74.7719 19.5564C74.3412 20.7374 71.7618 25.1805 70.5988 26.3832C69.8194 27.1592 67.589 27.2242 65.3711 27.2242C63.5733 27.2242 62.4923 27.1446 61.9303 26.7236C61.4378 26.355 60.8911 25.6344 60.8911 24.0649V3.02486C60.8911 2.10424 61.5638 1.61714 62.245 1.40073C63.0455 1.14647 65.3865 1.08148 65.3865 1.08148V0.0351562H50.9668C50.9668 0.0351562 50.9668 0.966492 50.9668 1.08148C52.1698 1.11576 53.5544 1.30967 54.1803 1.58714C55.015 1.95496 55.5425 2.6299 55.5425 3.3634V25.5637C55.5425 26.4193 54.8698 26.7432 54.1796 27.0085C53.6272 27.221 52.1212 27.3974 50.9711 27.4464C50.9711 27.5888 50.9711 28.4891 50.9711 28.4891H75.1987L75.7679 19.5561C75.7675 19.5564 75.0146 19.5564 74.7719 19.5564Z" fill="black"/>
  <path d="M102.368 19.5564C101.937 20.7374 99.3575 25.1805 98.1945 26.3832C97.4151 27.1592 95.1847 27.2242 92.9668 27.2242C91.169 27.2242 90.088 27.1446 89.526 26.7236C89.0335 26.355 88.4868 25.6344 88.4868 24.0649V3.02486C88.4868 2.10424 89.1595 1.61714 89.8407 1.40073C90.6412 1.14647 92.9822 1.08148 92.9822 1.08148V0.0351562H78.5625C78.5625 0.0351562 78.5625 0.966492 78.5625 1.08148C79.7655 1.11576 81.1501 1.30967 81.776 1.58714C82.6107 1.95496 83.1382 2.6299 83.1382 3.3634V25.5637C83.1382 26.4193 82.4655 26.7432 81.7753 27.0085C81.2229 27.221 79.7169 27.3974 78.5668 27.4464C78.5668 27.5888 78.5668 28.4891 78.5668 28.4891H102.794L103.364 19.5561C103.363 19.5564 102.61 19.5564 102.368 19.5564Z" fill="black"/>
</svg>

<svg xmlns="http://www.w3.org/2000/svg" width="164" height="55" fill="none"><path fill="#000" d="M67.292 35.61a10.726 10.726 0 0 0-3.658-2.312c-1.293-.486-2.71-.733-4.21-.733-3.021 0-5.72 1.053-7.805 3.045a10.211 10.211 0 0 0-2.44 3.625c-.569 1.425-.857 3.032-.857 4.777 0 3.211 1.151 5.99 3.33 8.036C53.678 53.95 56.395 55 59.303 55c1.598 0 3.07-.248 4.373-.737a10.087 10.087 0 0 0 3.43-2.154c2.218-2.041 3.391-4.968 3.391-8.463 0-3.212-1.138-6.065-3.206-8.035m-3.19 15.543c-1.013 1.914-2.747 2.885-4.677 2.885-1.933 0-3.671-.977-4.688-2.904-.931-1.764-1.423-4.28-1.423-7.275 0-3.231.541-5.881 1.566-7.664 1.018-1.771 2.708-2.669 4.545-2.669 2.006 0 3.777 1.042 4.787 3.095.866 1.76 1.324 4.221 1.324 7.115 0 3.078-.496 5.642-1.434 7.417m46.845.179c-.515-.664-1.011-1.343-1.498-1.994-2.026-2.706-3.944-5.267-6.075-7.684 1.863-1.586 5.721-5.607 6.265-6.151 1.597-1.598 4.418-1.57 4.418-1.57v-.784h-8.769v.776s2.72.093 2.72.907c0 1.821-8.006 8.465-8.131 8.465v-7.821c0-.687.494-1.018 1.007-1.204.591-.214 2.328-.336 2.328-.336v-.787H92.475v.788s1.717.094 2.301.386c.515.256 1.104.593 1.104 1.243v16.671c0 .618-.555.878-1.096 1.118-.472.21-2.31.3-2.31.3v.786h10.646v-.787s-1.767-.129-2.236-.354c-.5-.23-1.008-.625-1.008-1.245v-7.768l.729.005a91.462 91.462 0 0 1 4.002 4.932c1.983 2.648 1.975 3.3 1.992 3.437.128 1.066-1.968.999-1.968.999v.781h10.733v-.786c-.389-.024-2.632-.022-4.418-2.323m22.303 1.527c-.59.637-2.54.61-4.237.61 0 0-2.306.097-2.84-.388-.34-.309-.503-.814-.503-1.983v-7.22h2.248c1.528 0 2.03.432 2.381.838l.008.008c.172.184.454.724.702 1.344.269.669.452 1.303.492 1.696l.027.265h.864v-9.104h-.851l-.038.25c-.12.782-.723 2.456-1.183 2.89l-.015.015c-.309.336-.776.844-2.387.844h-2.249v-8.863h2.673c.952 0 2.108.061 2.808.149.544.07 1.297.695 2.066 1.714.656.869 1.417 2.235 1.505 2.833h.82v-5.62h-17.698v.79s1.622.064 2.46.386l.006.003c.528.19.743.549.743 1.237v16.604c0 .639-.213.97-.736 1.144l-.006.002c-.522.236-2.467.33-2.467.33v.79h18.889l.433-6.65h-.777s-1.714 3.548-3.138 5.087m20.915-19.716v.79c1.295.037 2.649.272 3.081.616.594.493.921 1.963.921 4.14v9.516l-11.882-15.062h-6.977v.799c.32.04 2.301.216 3.07.902.556.495.932 1.441.932 2.297v11.984c0 2.246-.264 3.456-.854 3.922-.538.404-2.905.64-2.905.64v.771h8.807v-.786c-1.248-.066-2.705-.382-3.087-.683-.409-.323-.885-1.056-.885-3.953V36.97l13.872 17.643h.986V38.66c0-1.307.11-3.577.845-4.098l.005-.004c.543-.402 2.086-.57 2.909-.642v-.771zm-73.127 20.16h-.002c-.516-.203-1.061-.586-1.061-1.24l.004-18.923h-7.556v.783s1.66.067 2.489.398l.004.001c.544.2 1.08.558 1.08 1.238v16.553c0 .629-.544.984-1.083 1.188l-.005.002c-.408.195-2.41.36-2.41.36v.77h11.025v-.778s-2.043-.157-2.485-.352m51.973-26.352c-.815-.477-1.112-1.03-1.42-1.8-.561-1.375-9.945-25.141-9.945-25.141h-1.169c-.53 1.485-7.456 18.386-9.782 23.897-.642 1.52-1.356 2.47-2.119 2.975-.827.547-2.544.563-2.544.563v1.044h10.302v-1.044s-4.461-.03-4.41-1.402c.013-.34.113-.958.585-2.186.302-.786 1.382-3.774 1.968-5.273h8.92l2.584 6.828c.199.535.172.888.14 1.031-.182.808-1.834.808-4.208 1.002v1.044h13.62v-1.045s-1.707-.015-2.522-.493m-17.98-9.793 3.961-9.805 3.822 9.805zM32.604 53.04l-.002-.002c-.823-.323-1.483-.928-1.483-1.962V23.072H19.748v.913s2.308.104 3.617.595l.005.001c.856.314 1.554.9 1.554 1.96v24.61c0 .982-.71 1.564-1.557 1.886l-.006.002c-.61.26-3.5.532-3.5.532v.9h16.357v-.908s-3.038-.233-3.614-.524m1.576-29.967v.844c5.28.654 6.825 5.13 6.843 7.235.022 2.683-.549 7.87-6.843 8.438v.816c10.829 0 12.974-5.658 12.974-9.167 0-4.956-2.67-8.39-12.974-8.166"/><path fill="#000" d="M21.868 39.606c-5.152-1.39-9.693-4.886-9.682-10.795V4.37c0-1.684.627-2.282 1.793-2.677.856-.29 3.475-.607 4.357-.634V.01L0 0v1.108c.8.037 3.234.178 4.178.668 1.058.55 1.747 1.315 1.747 2.595v23.35c0 6.763 6.385 12.013 15.943 12.685zM30.748.015V1.06c1.799.035 4.522.497 5.716 1.32 1.194.87 1.778 3.48 1.778 11.043l.355 6.549h.818l.355-6.549c0-7.3.584-10.172 1.777-11.043 1.194-.823 3.918-1.285 5.717-1.32V.015zm51.512 33.13v.572c3.915.517 4.915 3.367 4.888 4.909-.032 1.792-.18 5.409-4.888 5.725v.553c7.1 0 8.569-3.839 8.569-6.22 0-3.361-1.578-5.69-8.57-5.54m-7.487-13.588c-.43 1.181-3.01 5.624-4.173 6.827-.78.776-3.01.841-5.228.841-1.798 0-2.879-.08-3.44-.5-.493-.369-1.04-1.09-1.04-2.66V3.025c0-.92.673-1.407 1.354-1.623.8-.255 3.142-.32 3.142-.32V.035h-14.42v1.046c1.203.035 2.587.229 3.213.506.835.368 1.362 1.043 1.362 1.776v22.2c0 .856-.672 1.18-1.362 1.446-.553.212-2.059.388-3.209.437v1.043H75.2l.569-8.933zm27.596 0c-.431 1.181-3.01 5.624-4.173 6.827-.78.776-3.01.841-5.228.841-1.798 0-2.879-.08-3.441-.5-.492-.369-1.04-1.09-1.04-2.66V3.025c0-.92.673-1.407 1.355-1.623.8-.255 3.141-.32 3.141-.32V.035h-14.42v1.046c1.204.035 2.588.229 3.214.506.835.368 1.362 1.043 1.362 1.776v22.2c0 .856-.672 1.18-1.363 1.446-.552.212-2.058.388-3.208.437v1.043h24.227l.57-8.933z"/></svg>
